apps/frontend/static_src/images/bird.svg

<svg fill="none" height="57" viewBox="0 0 47 57" width="47" xmlns="http://www.w3.org/2000/svg"><path d="m37.0336 2.04019s-4.179-1.261773-5.9747.00003c-2.6434 1.85736 1.1677.81457-1.681 4.40823-2.0725 2.60479-2.0436 5.32445-.7129 8.85805 10.2013-.8582 12.2776 4.8487 12.2776 4.8487l-1.5796-6.6237 2.8887-4.27753c-.3811-4.73156-4.3957-7.03993-5.2181-7.21378z" fill="#fff"/><g fill="#000"><path d="m29.9582 16.7048.8286-1.4312c-1.5018-1.1662-2.5376-2.9685-2.5376-5.0888 0-3.49854 2.7448-6.30798 6.1628-6.30798.8804 0 1.6572.15903 2.3822.47708.3626-.53009.7251-1.16619 1.0876-1.96132-1.5019-1.00715-3.3144-1.537233-5.2306-1.537233-5.3859 0-9.7879 4.452693-9.7879 10.018553 0 5.5129 4.3502 10.0186 9.7879 10.0186 1.6054 0 2.3305-.4241 2.5376-1.1132z"/><path d="m42.2309 9.28369-2.434 3.71061h6.577z"/><path d="m38.2957 9.60167c.6864 0 1.2429-.56958 1.2429-1.27219 0-.70262-.5565-1.2722-1.2429-1.2722-.6865 0-1.243.56958-1.243 1.2722 0 .70261.5565 1.27219 1.243 1.27219z"/></g><path d="m33.2083 18.3907c-1.0434 1.8958-3.1765 5.8057-3.362 6.2796l-14.7233 14.2179 15.8826-2.6066 6.9559-13.3885z" fill="#fff" stroke="#000"/><path d="m41.8689 22.6418c0-5.4069-4.2984-9.8596-9.6325-9.8596-2.0198 0-3.9359.6361-5.4896 1.7493l-2.5894-8.53434-19.5758 34.50834 5.6967-1.4842-9.995097 17.7578 8.441427-2.8625 3.21087-11.0257c3.2626.159 26.0493.6891 29.6745-18.2348v-.053c.0518-.3711.1553-.7422.2071-1.1132h-.0518c.0518-.3181.1036-.5831.1036-.8481zm-21.7509 13.4641.4143-.3181c12.7916-3.8166 13.3613-12.828 13.3613-12.828l2.1751-.7421c-2.1751 11.6088-15.9507 13.8882-15.9507 13.8882z" fill="#000"/></svg>

<svg width="47" height="57" viewBox="0 0 47 57" fill="none" xmlns="http://www.w3.org/2000/svg">
<path d="M37.0336 2.04019C37.0336 2.04019 32.8546 0.778417 31.0589 2.04022C28.4155 3.89758 32.2266 2.85479 29.3779 6.44845C27.3054 9.05324 27.3343 11.7729 28.665 15.3065C38.8663 14.4483 40.9426 20.1552 40.9426 20.1552L39.363 13.5315L42.2517 9.25397C41.8706 4.52241 37.856 2.21404 37.0336 2.04019Z" fill="white"/>
<path d="M29.9582 16.7048L30.7868 15.2736C29.285 14.1074 28.2492 12.3051 28.2492 10.1848C28.2492 6.68626 30.994 3.87682 34.412 3.87682C35.2924 3.87682 36.0692 4.03585 36.7942 4.3539C37.1568 3.82381 37.5193 3.18771 37.8818 2.39258C36.3799 1.38543 34.5674 0.855347 32.6512 0.855347C27.2653 0.855347 22.8633 5.30804 22.8633 10.8739C22.8633 16.3868 27.2135 20.8925 32.6512 20.8925C34.2566 20.8925 34.9817 20.4684 35.1888 19.7793L29.9582 16.7048Z" fill="black"/>
<path d="M42.2309 9.28369L39.7969 12.9943H46.3739L42.2309 9.28369Z" fill="black"/>
<path d="M38.2957 9.60167C38.9821 9.60167 39.5386 9.03209 39.5386 8.32948C39.5386 7.62686 38.9821 7.05728 38.2957 7.05728C37.6092 7.05728 37.0527 7.62686 37.0527 8.32948C37.0527 9.03209 37.6092 9.60167 38.2957 9.60167Z" fill="black"/>
<path d="M33.2083 18.3907C32.1649 20.2865 30.0318 24.1964 29.8463 24.6703L15.123 38.8882L31.0056 36.2816L37.9615 22.8931L33.2083 18.3907Z" fill="white" stroke="black"/>
<path d="M41.8689 22.6418C41.8689 17.2349 37.5705 12.7822 32.2364 12.7822C30.2166 12.7822 28.3005 13.4183 26.7468 14.5315L24.1574 5.99716L4.5816 40.5055L10.2783 39.0213L0.283203 56.7791L8.72463 53.9166L11.9355 42.8909C15.1981 43.0499 37.9848 43.58 41.61 24.6561V24.6031C41.6618 24.232 41.7653 23.8609 41.8171 23.4899H41.7653C41.8171 23.1718 41.8689 22.9068 41.8689 22.6418ZM20.118 36.1059L20.5323 35.7878C33.3239 31.9712 33.8936 22.9598 33.8936 22.9598L36.0687 22.2177C33.8936 33.8265 20.118 36.1059 20.118 36.1059Z" fill="black"/>
</svg>
